packages/tokens/icons/atom/size16Px.svg

<svg viewBox="0 0 16 17" fill="none" xmlns="http://www.w3.org/2000/svg" width="1em" height="1em"><path d="M6.78047 10.4673C8.71002 11.5814 10.6074 12.2848 12.1031 12.5335C12.8529 12.6583 13.4744 12.6641 13.9383 12.5692C14.403 12.4742 14.6502 12.2929 14.766 12.0922C14.8819 11.8916 14.9153 11.5869 14.7652 11.137C14.6155 10.6878 14.2996 10.1524 13.8167 9.56541C12.8534 8.3945 11.2956 7.10304 9.36602 5.98901C7.43647 4.87498 5.53912 4.17158 4.04342 3.92279C3.29363 3.79808 2.67205 3.79224 2.20815 3.88713C1.74349 3.98217 1.49631 4.16345 1.38047 4.3641C1.26463 4.56474 1.23123 4.86944 1.38125 5.31937C1.53102 5.76857 1.84686 6.30395 2.32977 6.89093C3.29307 8.06185 4.85091 9.3533 6.78047 10.4673Z" stroke="currentColor"/><path d="M9.29278 10.4673C7.36322 11.5814 5.46587 12.2848 3.97017 12.5335C3.22038 12.6583 2.59881 12.6641 2.13491 12.5692C1.67024 12.4742 1.42307 12.2929 1.30722 12.0922C1.19138 11.8916 1.15798 11.5869 1.308 11.137C1.45777 10.6878 1.77361 10.1524 2.25652 9.56541C3.21983 8.39449 4.77767 7.10304 6.70722 5.98901C8.63678 4.87498 10.5341 4.17158 12.0298 3.92279C12.7796 3.79808 13.4012 3.79224 13.8651 3.88713C14.3298 3.98217 14.5769 4.16345 14.6928 4.3641C14.8086 4.56474 14.842 4.86944 14.692 5.31937C14.5422 5.76857 14.2264 6.30395 13.7435 6.89093C12.7802 8.06185 11.2223 9.3533 9.29278 10.4673Z" stroke="currentColor"/><path d="M5.41458 8.22815C5.41458 6.00009 5.75409 4.00524 6.28648 2.58553C6.55337 1.87383 6.8591 1.33261 7.17323 0.978308C7.48787 0.62342 7.76845 0.499996 8.00014 0.499996C8.23182 0.499996 8.5124 0.623421 8.82705 0.978309C9.14117 1.33261 9.4469 1.87383 9.71379 2.58553C10.2462 4.00524 10.5857 6.00009 10.5857 8.22815C10.5857 10.4562 10.2462 12.4511 9.71379 13.8708C9.4469 14.5825 9.14117 15.1237 8.82705 15.478C8.5124 15.8329 8.23182 15.9563 8.00014 15.9563C7.76845 15.9563 7.48787 15.8329 7.17323 15.478C6.8591 15.1237 6.55337 14.5825 6.28648 13.8708C5.75409 12.4511 5.41458 10.4562 5.41458 8.22815Z" stroke="currentColor"/><circle cx="8" cy="8.22815" r="0.5" stroke="currentColor"/></svg>

<svg xmlns="http://www.w3.org/2000/svg" fill="none" viewBox="0 0 16 17" width="1em" height="1em"><path stroke="currentColor" d="M6.78 10.467c1.93 1.114 3.827 1.818 5.323 2.066.75.125 1.371.131 1.835.036.465-.095.712-.276.828-.477.116-.2.15-.505 0-.955-.15-.45-.466-.985-.95-1.572-.963-1.17-2.52-2.462-4.45-3.576-1.93-1.114-3.827-1.817-5.323-2.066-.75-.125-1.371-.13-1.835-.036-.465.095-.712.276-.828.477-.115.2-.149.505.001.955.15.45.466.985.949 1.572.963 1.17 2.52 2.462 4.45 3.576Z"/><path stroke="currentColor" d="M9.293 10.467c-1.93 1.114-3.827 1.818-5.323 2.066-.75.125-1.371.131-1.835.036-.465-.095-.712-.276-.828-.477-.116-.2-.149-.505.001-.955.15-.45.466-.985.949-1.572.963-1.17 2.52-2.462 4.45-3.576 1.93-1.114 3.827-1.817 5.323-2.066.75-.125 1.371-.13 1.835-.036.465.095.712.276.828.477.116.2.149.505-.001.955-.15.45-.466.985-.949 1.572-.963 1.17-2.52 2.462-4.45 3.576Z"/><path stroke="currentColor" d="M5.415 8.228c0-2.228.34-4.223.871-5.642.267-.712.573-1.253.887-1.608C7.488.623 7.768.5 8 .5c.232 0 .512.123.827.478.314.355.62.896.887 1.608.532 1.42.872 3.414.872 5.642s-.34 4.223-.872 5.643c-.267.711-.573 1.253-.887 1.607-.315.355-.595.478-.827.478-.232 0-.512-.123-.827-.478-.314-.354-.62-.896-.887-1.607-.532-1.42-.871-3.415-.871-5.643Z"/><circle cx="8" cy="8.228" r=".5" stroke="currentColor"/></svg>
